X:1
T:Title
%%score { ( 1 3 ) | 2 }
L:1/8
M:6/8
K:Bb
V:1 treble nm="Grand Piano"
V:3 treble 
V:2 bass 
V:1
 z3 z2[Q:1/4=100] [DF] | [DF][DG][DA] [DB][Ec][Fd] | cBG [DF]2 [DB] | A3 G2 A | %4
[M:5/8] [DF]3 [DB]2 |[M:1/8] [DF] |[M:3/4] [B,D][CE] [_D=E][=DF] [DB][Fd] | cB G [DF]2 [DB] | %8
 [CA]3 [=EB]2 E |[M:5/8] G3 F2 |[M:1/8] F |[M:3/4] FA ce d>c | [DB][DF]- [DF]3 [DF] | d>c BB AB | %14
 c6 | [Dd]>[Fd] [Fd]B cd | f<e e G2 [Ge] | d>c BA GA |[M:5/8] [DB]-[DB]- [DB]3 |] %19
V:2
 z3 z2 [B,,B,] | [B,,F,][B,,F,][B,,F,] [B,,F,][B,,F,][B,,F,] | %2
 [E,G,E][E,G,E][E,B,E] [B,,B,]2 [B,,B,] | [F,CE]3 [F,B,E]2 [F,CE] |[M:5/8] [B,,B,]3 [B,,F,]2 | %5
[M:1/8] [B,,F,] |[M:3/4] [B,,F,][B,,F,] [B,,B,][B,,B,] [B,,F,][B,,F,] | %7
 [E,G,E][E,G,E] [E,B,E] [B,,B,]2 [B,,F,] | [C,F,]3 [C,G,]2 [C,B,C] |[M:5/8] [F,B,C]3 [F,A,C]2 | %10
[M:1/8] [F,A,] |[M:3/4] [F,A,][F,CE] [F,A,F][F,CF] [F,B,F]>[F,A,E] | %12
 [B,,F,][B,,B,]- [B,,B,]3 [B,,B,] | [B,F]>[B,E] [B,D][G,C=E] [G,CE][K:bass][G,CE] | %14
 [F,A,E]>[F,A,] [F,A,] [F,A,]2 [F,E] | [B,,F,]>[B,,B,] [B,,B,][K:treble][_A,DF] [A,CF][A,B,F] | %16
 [G,B,G]<[G,B,G][K:bass] [G,B,E] [E,B,E]2 [E,B,] | [F,B,F]>[F,EF] [F,DF][F,CE] [F,E][F,E] | %18
[M:5/8] [B,,F,]-[B,,F,]- [B,,F,]3 |] %19
V:3
 x6 | x6 | x6 | x6 |[M:5/8] x5 |[M:1/8] x |[M:3/4] x6 | x6 | x6 |[M:5/8] x5 |[M:1/8] x | %11
[M:3/4] x6 | x6 | x6 | z z/ E/ E E2 F | x6 | x6 | x6 |[M:5/8] x5 |] %19

